Apricity Icons/16/panel/rocketchat-tray-dot.svg

<svg xmlns="http://www.w3.org/2000/svg" width="16" height="16" version="1.1">
 <defs>
  <style id="current-color-scheme" type="text/css">
   .ColorScheme-Text { color:#dfdfdf; } .ColorScheme-Highlight { color:#4285f4; }
  </style>
 </defs>
 <path style="fill:currentColor" class="ColorScheme-Text" d="M 0 0 C 0.625289 0.9191748 1.0814606 2.662158 1.3378906 4.6816406 C 0.46628912 5.6649318 0.00089587995 6.8192434 0 8 C 0.00265481 9.2141744 0.49640485 10.399175 1.4160156 11.398438 C 1.1963716 13.38357 0.740364 15.093055 0 16 C 2.101032 16 4.0025374 15.106296 5.3808594 13.662109 C 6.2226815 13.883472 7.1079412 13.997678 8 14 C 12.418278 14 16 11.313708 16 8 C 16 4.6862915 12.418278 2 8 2 C 7.1079412 2.0023218 6.2226815 2.1165275 5.3808594 2.3378906 C 4.0025374 0.89370416 2.101032 1.4802974e-15 0 0 z M 8 4 A 6 4 0 0 1 8.6523438 4.0253906 C 8.6568223 4.025732 8.6615401 4.0250424 8.6660156 4.0253906 A 6 4 0 0 1 8.7226562 4.03125 A 6 4 0 0 1 13.898438 7.2792969 C 13.901566 7.2904721 13.907177 7.3013107 13.910156 7.3125 A 6 4 0 0 1 14 8 A 6 4 0 0 1 13.916016 8.6425781 C 13.909218 8.6699757 13.904179 8.6972946 13.896484 8.7246094 A 6 4 0 0 1 13.625 9.375 A 6 4 0 0 1 9.3242188 11.896484 C 9.320187 11.89712 9.316535 11.897805 9.3125 11.898438 A 6 4 0 0 1 9.28125 11.902344 A 6 4 0 0 1 8.7988281 11.958984 C 8.7209966 11.966283 8.643292 11.973318 8.5644531 11.978516 A 6 4 0 0 1 8.015625 12 L 8.0058594 12 A 6 4 0 0 1 8 12 A 6 4 0 0 1 5.4160156 11.603516 L 4.7480469 11.427734 L 3.9335938 12.28125 C 3.7192645 12.505821 3.4358454 12.623794 3.1933594 12.808594 C 3.2543494 12.405874 3.3577169 12.04013 3.4042969 11.619141 L 3.5039062 10.712891 L 3.2578125 10.445312 A 6 4 0 0 1 2.0605469 8.5332031 C 2.0556071 8.509792 2.0531006 8.4862766 2.0488281 8.4628906 A 6 4 0 0 1 2 8 A 6 4 0 0 1 2.046875 7.5234375 C 2.0503884 7.5045264 2.0565962 7.4857245 2.0605469 7.4667969 A 6 4 0 0 1 8 4 z M 5 7 C 4.4477153 7 4 7.4477153 4 8 C 4 8.5522847 4.4477153 9 5 9 C 5.5522847 9 6 8.5522847 6 8 C 6 7.4477153 5.5522847 7 5 7 z M 8 7 C 7.4477153 7 7 7.4477153 7 8 C 7 8.5522847 7.4477153 9 8 9 C 8.5522847 9 9 8.5522847 9 8 C 9 7.4477153 8.5522847 7 8 7 z M 11 7 C 10.447715 7 10 7.4477153 10 8 C 10 8.5522847 10.447715 9 11 9 C 11.552285 9 12 8.5522847 12 8 C 12 7.4477153 11.552285 7 11 7 z M 14.5 13 A 1.5 1.5 0 0 0 13 14.5 A 1.5 1.5 0 0 0 14.5 16 A 1.5 1.5 0 0 0 16 14.5 A 1.5 1.5 0 0 0 14.5 13 z"/>
</svg>

<svg xmlns="http://www.w3.org/2000/svg" width="16" height="16"><defs><style id="current-color-scheme" type="text/css"></style></defs><path d="M0 0c.625.92 1.081 2.662 1.338 4.682C.466 5.665 0 6.819 0 8c.003 1.214.496 2.4 1.416 3.398C1.196 13.384.74 15.093 0 16c2.101 0 4.003-.894 5.38-2.338.843.221 1.728.336 2.62.338 4.418 0 8-2.686 8-6s-3.582-6-8-6c-.892.002-1.777.117-2.62.338C4.004.894 2.102 0 0 0zm8 4a6 4 0 0 1 .652.025h.014a6 4 0 0 1 .057.006 6 4 0 0 1 5.175 3.248c.004.011.01.022.012.034A6 4 0 0 1 14 8a6 4 0 0 1-.084.643c-.007.027-.012.054-.02.082a6 4 0 0 1-.271.65 6 4 0 0 1-4.3 2.521l-.012.002a6 4 0 0 1-.032.004 6 4 0 0 1-.482.057 8.468 8.468 0 0 1-.235.02 6 4 0 0 1-.548.021h-.01A6 4 0 0 1 8 12a6 4 0 0 1-2.584-.396l-.668-.176-.814.853c-.215.225-.498.343-.74.528.06-.403.164-.769.21-1.19l.1-.906-.246-.268A6 4 0 0 1 2.06 8.533c-.005-.023-.008-.047-.012-.07A6 4 0 0 1 2 8a6 4 0 0 1 .047-.477c.003-.018.01-.037.014-.056A6 4 0 0 1 8 4zM5 7a1 1 0 1 0 0 2 1 1 0 0 0 0-2zm3 0a1 1 0 1 0 0 2 1 1 0 0 0 0-2zm3 0a1 1 0 1 0 0 2 1 1 0 0 0 0-2zm3.5 6a1.5 1.5 0 0 0-1.5 1.5 1.5 1.5 0 0 0 1.5 1.5 1.5 1.5 0 0 0 1.5-1.5 1.5 1.5 0 0 0-1.5-1.5z" fill="currentColor" color="#dfdfdf"/></svg>
